vendor/assets/images/icons/warning-circle.svg

<svg baseProfile="tiny" xmlns="http://www.w3.org/2000/svg" width="32" height="288" viewBox="-281 276.9 32 288"><path fill="#fff" d="M-265 276.9c-8.8 0-16 7.2-16 16s7.2 16 16 16 16-7.2 16-16-7.2-16-16-16zm2.1 5l-.4 14h-3.4l-.3-14h4.1zm-2.1 21.9c-1.5 0-2.4-1-2.4-2.5 0-1.4 1-2.5 2.4-2.5s2.4 1 2.4 2.5c0 1.4-1 2.5-2.4 2.5z"/><path fill="#333" d="M-265 340.9c-8.8 0-16 7.2-16 16s7.2 16 16 16 16-7.2 16-16-7.2-16-16-16zm2.1 5l-.4 14h-3.4l-.3-14h4.1zm-2.1 21.9c-1.5 0-2.4-1-2.4-2.5 0-1.4 1-2.5 2.4-2.5s2.4 1 2.4 2.5c0 1.4-1 2.5-2.4 2.5z"/><path fill="#97999A" d="M-265 404.9c-8.8 0-16 7.2-16 16s7.2 16 16 16 16-7.2 16-16-7.2-16-16-16zm2.1 5l-.4 14h-3.4l-.3-14h4.1zm-2.1 21.9c-1.5 0-2.4-1-2.4-2.5 0-1.4 1-2.5 2.4-2.5s2.4 1 2.4 2.5c0 1.4-1 2.5-2.4 2.5z"/><path fill="#008FE9" d="M-265 468.9c-8.8 0-16 7.2-16 16s7.2 16 16 16 16-7.2 16-16-7.2-16-16-16zm2.1 5l-.4 14h-3.4l-.3-14h4.1zm-2.1 21.9c-1.5 0-2.4-1-2.4-2.5 0-1.4 1-2.5 2.4-2.5s2.4 1 2.4 2.5c0 1.4-1 2.5-2.4 2.5z"/><path fill="#1C1F4E" d="M-265 532.9c-8.8 0-16 7.2-16 16s7.2 16 16 16 16-7.2 16-16-7.2-16-16-16zm2.1 5l-.4 14h-3.4l-.3-14h4.1zm-2.1 21.9c-1.5 0-2.4-1-2.4-2.5 0-1.4 1-2.5 2.4-2.5s2.4 1 2.4 2.5c0 1.4-1 2.5-2.4 2.5z"/></svg>

<?xml version="1.0" encoding="utf-8"?>
<!-- Generator: Adobe Illustrator 18.1.1, SVG Export Plug-In . SVG Version: 6.00 Build 0)  -->
<svg version="1.1" baseProfile="tiny" id="Layer_1" xmlns="http://www.w3.org/2000/svg" xmlns:xlink="http://www.w3.org/1999/xlink"
	 x="0px" y="0px" width="32px" height="288px" viewBox="-281 276.9 32 288" xml:space="preserve">
<path fill="#FFFFFF" d="M-265,276.9c-8.8,0-16,7.2-16,16s7.2,16,16,16c8.8,0,16-7.2,16-16C-249,284.1-256.2,276.9-265,276.9z
	 M-262.9,281.9l-0.4,14h-3.4l-0.3-14H-262.9z M-265,303.8c-1.5,0-2.4-1-2.4-2.5c0-1.4,1-2.5,2.4-2.5c1.4,0,2.4,1,2.4,2.5
	C-262.6,302.7-263.6,303.8-265,303.8z"/>
<path fill="#333333" d="M-265,340.9c-8.8,0-16,7.2-16,16s7.2,16,16,16c8.8,0,16-7.2,16-16S-256.2,340.9-265,340.9z M-262.9,345.9
	l-0.4,14h-3.4l-0.3-14H-262.9z M-265,367.8c-1.5,0-2.4-1-2.4-2.5c0-1.4,1-2.5,2.4-2.5c1.4,0,2.4,1,2.4,2.5
	C-262.6,366.7-263.6,367.8-265,367.8z"/>
<path fill="#97999A" d="M-265,404.9c-8.8,0-16,7.2-16,16s7.2,16,16,16c8.8,0,16-7.2,16-16S-256.2,404.9-265,404.9z M-262.9,409.9
	l-0.4,14h-3.4l-0.3-14H-262.9z M-265,431.8c-1.5,0-2.4-1-2.4-2.5c0-1.4,1-2.5,2.4-2.5c1.4,0,2.4,1,2.4,2.5
	C-262.6,430.7-263.6,431.8-265,431.8z"/>
<path fill="#008FE9" d="M-265,468.9c-8.8,0-16,7.2-16,16s7.2,16,16,16c8.8,0,16-7.2,16-16S-256.2,468.9-265,468.9z M-262.9,473.9
	l-0.4,14h-3.4l-0.3-14H-262.9z M-265,495.8c-1.5,0-2.4-1-2.4-2.5c0-1.4,1-2.5,2.4-2.5c1.4,0,2.4,1,2.4,2.5
	C-262.6,494.7-263.6,495.8-265,495.8z"/>
<path fill="#1C1F4E" d="M-265,532.9c-8.8,0-16,7.2-16,16s7.2,16,16,16c8.8,0,16-7.2,16-16S-256.2,532.9-265,532.9z M-262.9,537.9
	l-0.4,14h-3.4l-0.3-14H-262.9z M-265,559.8c-1.5,0-2.4-1-2.4-2.5c0-1.4,1-2.5,2.4-2.5c1.4,0,2.4,1,2.4,2.5
	C-262.6,558.7-263.6,559.8-265,559.8z"/>
</svg>
